X:75
T: Aggie Whyte's
M: 6/8
L: 1/8
S: Luke O'Malley vol 1
Z: B.Black
R: jig
K: D
A, | DFA dcd | edc dAF | DFA dAF | A,CE GFE |
DFA dcd | edc d2 f | afd gec | dAF D2 :|
f/g/ | afd gec | dcd AFD | fdB gec | dcB A2 f/g/ |
a^ga ba=g | fdf ecA | dcd AFD | A,CE D2 :|
